humanity-icon-theme/Humanity/apps/64/application-default-icon.svg

<?xml version="1.0" encoding="UTF-8" standalone="no"?>
<!-- Created with Inkscape (http://www.inkscape.org/) -->
<svg
   xmlns:svg="http://www.w3.org/2000/svg"
   xmlns="http://www.w3.org/2000/svg"
   xmlns:xlink="http://www.w3.org/1999/xlink"
   version="1.0"
   width="64"
   height="64"
   id="svg3373">
  <defs
     id="defs3375">
    <linearGradient
       id="linearGradient3702-501-757">
      <stop
         id="stop2895"
         style="stop-color:#181818;stop-opacity:0"
         offset="0" />
      <stop
         id="stop2897"
         style="stop-color:#181818;stop-opacity:1"
         offset="0.5" />
      <stop
         id="stop2899"
         style="stop-color:#181818;stop-opacity:0"
         offset="1" />
    </linearGradient>
    <linearGradient
       x1="25.058096"
       y1="47.027729"
       x2="25.058096"
       y2="39.999443"
       id="linearGradient2877-634-617"
       xlink:href="#linearGradient3702-501-757"
       gradientUnits="userSpaceOnUse" />
    <linearGradient
       id="linearGradient3688-464-309">
      <stop
         id="stop2889"
         style="stop-color:#181818;stop-opacity:1"
         offset="0" />
      <stop
         id="stop2891"
         style="stop-color:#181818;stop-opacity:0"
         offset="1" />
    </linearGradient>
    <radialGradient
       cx="4.9929786"
       cy="43.5"
       r="2.5"
       fx="4.9929786"
       fy="43.5"
       id="radialGradient2875-742-326"
       xlink:href="#linearGradient3688-464-309"
       gradientUnits="userSpaceOnUse"
       gradientTransform="matrix(2.003784,0,0,1.4,-20.01187,-104.4)" />
    <linearGradient
       id="linearGradient3688-166-749">
      <stop
         id="stop2883"
         style="stop-color:#181818;stop-opacity:1"
         offset="0" />
      <stop
         id="stop2885"
         style="stop-color:#181818;stop-opacity:0"
         offset="1" />
    </linearGradient>
    <radialGradient
       cx="4.9929786"
       cy="43.5"
       r="2.5"
       fx="4.9929786"
       fy="43.5"
       id="radialGradient2873-966-168"
       xlink:href="#linearGradient3688-166-749"
       gradientUnits="userSpaceOnUse"
       gradientTransform="matrix(2.003784,0,0,1.4,27.98813,-17.4)" />
    <linearGradient
       id="linearGradient2490-654-721">
      <stop
         id="stop2913"
         style="stop-color:#545454;stop-opacity:1"
         offset="0" />
      <stop
         id="stop2915"
         style="stop-color:#a4a4a4;stop-opacity:1"
         offset="1" />
    </linearGradient>
    <linearGradient
       x1="24"
       y1="44"
       x2="24"
       y2="3.8990016"
       id="linearGradient2465"
       xlink:href="#linearGradient2490-654-721"
       gradientUnits="userSpaceOnUse"
       gradientTransform="matrix(1.4102565,0,0,1.4102563,-1.846154,-1.846154)" />
    <linearGradient
       id="linearGradient3242-52-665">
      <stop
         id="stop2903"
         style="stop-color:#d3d3d3;stop-opacity:1"
         offset="0" />
      <stop
         id="stop2905"
         style="stop-color:#b1b1b1;stop-opacity:1"
         offset="0.26238" />
      <stop
         id="stop2907"
         style="stop-color:#8e8e8e;stop-opacity:1"
         offset="0.66093999" />
      <stop
         id="stop2909"
         style="stop-color:#525252;stop-opacity:1"
         offset="1" />
    </linearGradient>
    <radialGradient
       cx="7.4956832"
       cy="8.4497671"
       r="19.99999"
       fx="7.4956832"
       fy="8.4497671"
       id="radialGradient2463"
       xlink:href="#linearGradient3242-52-665"
       gradientUnits="userSpaceOnUse"
       gradientTransform="matrix(0,3.2432597,-4.3410584,-1.3685267e-7,68.68109,-18.988922)" />
    <linearGradient
       id="linearGradient3308-4-6-931-761">
      <stop
         id="stop2919"
         style="stop-color:#ffffff;stop-opacity:1"
         offset="0" />
      <stop
         id="stop2921"
         style="stop-color:#ffffff;stop-opacity:0"
         offset="1" />
    </linearGradient>
    <linearGradient
       x1="23.99999"
       y1="4.999989"
       x2="23.99999"
       y2="43"
       id="linearGradient2460"
       xlink:href="#linearGradient3308-4-6-931-761"
       gradientUnits="userSpaceOnUse"
       gradientTransform="matrix(1.4324331,0,0,1.432432,-2.3783784,-2.3783618)" />
  </defs>
  <g
     id="layer1">
    <g
       transform="matrix(1.5000021,0,0,0.5555561,-4.0000114,35.888881)"
       id="g2036"
       style="display:inline">
      <g
         transform="matrix(1.052632,0,0,1.285713,-1.263158,-13.42854)"
         id="g3712"
         style="opacity:0.4">
        <rect
           width="5"
           height="7"
           x="38"
           y="40"
           id="rect2801"
           style="fill:url(#radialGradient2873-966-168);fill-opacity:1;stroke:none" />
        <rect
           width="5"
           height="7"
           x="-10"
           y="-47"
           transform="scale(-1,-1)"
           id="rect3696"
           style="fill:url(#radialGradient2875-742-326);fill-opacity:1;stroke:none" />
        <rect
           width="28"
           height="7.0000005"
           x="10"
           y="40"
           id="rect3700"
           style="fill:url(#linearGradient2877-634-617);fill-opacity:1;stroke:none" />
      </g>
    </g>
    <rect
       width="55"
       height="55"
       rx="3"
       ry="3"
       x="4.5"
       y="4.5000005"
       id="rect5505"
       style="fill:url(#radialGradient2463);fill-opacity:1;stroke:url(#linearGradient2465);stroke-width:0.99999988;stroke-linecap:round;stroke-linejoin:round;stroke-miterlimit:4;stroke-dasharray:none;stroke-dashoffset:0;stroke-opacity:1" />
    <rect
       width="53"
       height="53.000004"
       rx="2"
       ry="2"
       x="5.5"
       y="5.5"
       id="rect6741"
       style="opacity:0.4;fill:none;stroke:url(#linearGradient2460);stroke-width:0.99999964;stroke-linecap:round;stroke-linejoin:round;stroke-miterlimit:4;stroke-dasharray:none;stroke-dashoffset:0;stroke-opacity:1" />
    <path
       d="M 33.251853,39.848125 C 33.160991,36.491426 33.887617,33.232785 36.951797,30.924567 C 40.188356,28.314121 43.305418,25.048097 42.976011,21.198193 C 42.904085,17.485307 38.724179,14.575857 34.220634,14.15753 C 29.154879,13.431211 23.025345,15.227307 21.327845,19.321794 C 20.466911,21.313211 21.265283,24.886047 24.154562,24.886047 C 25.844509,24.886047 26.620711,23.756219 26.748229,22.722689 C 26.844712,21.940689 26.534506,21.242371 26.351312,20.596432 C 26.142574,19.860428 27.033663,18.433972 28.004178,17.852781 C 28.815157,17.367122 29.663647,17.204273 29.788718,17.173164 C 32.701168,16.448753 35.604459,18.048877 36.815764,19.996424 C 38.02707,21.943971 36.69379,24.898021 34.776839,27.77072 C 32.859887,30.643421 30.802655,33.906221 30.810875,37.37185 C 30.810875,38.691217 30.697285,39.139437 30.777998,39.673221 C 30.842471,40.099699 32.206934,40.04816 33.251855,39.848125 L 33.251853,39.848125 z M 31.922701,44.366063 C 29.137939,44.209603 27.210498,47.476907 28.883447,49.558623 C 30.377467,51.857045 34.566356,51.289661 35.28433,48.68693 C 36.030765,46.662971 34.23446,44.332278 31.922702,44.366062 L 31.922701,44.366063 z"
       id="path3298"
       style="font-size:72px;font-style:normal;font-weight:bold;opacity:0.4;fill:#ffffff;fill-opacity:1;stroke:none;font-family:Standard Symbols L" />
    <path
       d="M 33.251853,38.848127 C 33.160991,35.491427 33.887617,32.232786 36.951797,29.924569 C 40.188356,27.314121 43.305418,24.048098 42.976011,20.198193 C 42.904085,16.485308 38.724179,13.575858 34.220634,13.157531 C 29.154879,12.431212 23.025345,14.227309 21.327845,18.321794 C 20.466911,20.313212 21.265283,23.886049 24.154562,23.886049 C 25.844509,23.886049 26.620711,22.756219 26.748229,21.72269 C 26.844712,20.940689 26.534506,20.242371 26.351312,19.596433 C 26.142574,18.860428 27.033663,17.433973 28.004178,16.852781 C 28.815157,16.367122 29.663647,16.204274 29.788718,16.173164 C 32.701168,15.448753 35.604459,17.048877 36.815764,18.996425 C 38.02707,20.943971 36.69379,23.898021 34.776839,26.770721 C 32.859887,29.643421 30.802655,32.906221 30.810875,36.37185 C 30.810875,37.691218 30.697285,38.139439 30.777998,38.67322 C 30.842471,39.099699 32.206934,39.04816 33.251855,38.848127 L 33.251853,38.848127 z M 31.922701,43.366065 C 29.137939,43.209603 27.210498,46.476908 28.883447,48.558624 C 30.377467,50.857046 34.566356,50.289662 35.28433,47.686929 C 36.030765,45.662971 34.23446,43.332279 31.922702,43.366063 L 31.922701,43.366065 z"
       id="path9053"
       style="font-size:72px;font-style:normal;font-weight:bold;opacity:0.4;fill:#000000;fill-opacity:1;stroke:none;font-family:Standard Symbols L" />
  </g>
</svg>

<?xml version="1.0" encoding="UTF-8" standalone="no"?>
<!-- Created with Inkscape (http://www.inkscape.org/) -->
<svg id="svg3373" xmlns="http://www.w3.org/2000/svg" height="64" width="64" version="1.0" xmlns:xlink="http://www.w3.org/1999/xlink">
 <defs id="defs3375">
  <linearGradient id="linearGradient2877-634-617" y2="39.999" gradientUnits="userSpaceOnUse" x2="25.058" y1="47.028" x1="25.058">
   <stop id="stop2895" style="stop-color:#181818;stop-opacity:0" offset="0"/>
   <stop id="stop2897" style="stop-color:#181818" offset=".5"/>
   <stop id="stop2899" style="stop-color:#181818;stop-opacity:0" offset="1"/>
  </linearGradient>
  <radialGradient id="radialGradient2875-742-326" gradientUnits="userSpaceOnUse" cy="43.5" cx="4.993" gradientTransform="matrix(2.0038 0 0 1.4 -20.012 -104.4)" r="2.5">
   <stop id="stop2889" style="stop-color:#181818" offset="0"/>
   <stop id="stop2891" style="stop-color:#181818;stop-opacity:0" offset="1"/>
  </radialGradient>
  <radialGradient id="radialGradient2873-966-168" gradientUnits="userSpaceOnUse" cy="43.5" cx="4.993" gradientTransform="matrix(2.0038 0 0 1.4 27.988 -17.4)" r="2.5">
   <stop id="stop2883" style="stop-color:#181818" offset="0"/>
   <stop id="stop2885" style="stop-color:#181818;stop-opacity:0" offset="1"/>
  </radialGradient>
  <linearGradient id="linearGradient2465" y2="3.899" gradientUnits="userSpaceOnUse" x2="24" gradientTransform="matrix(1.4103 0 0 1.4103 -1.8462 -1.8462)" y1="44" x1="24">
   <stop id="stop2913" style="stop-color:#545454" offset="0"/>
   <stop id="stop2915" style="stop-color:#a4a4a4" offset="1"/>
  </linearGradient>
  <radialGradient id="radialGradient2463" gradientUnits="userSpaceOnUse" cy="8.4498" cx="7.4957" gradientTransform="matrix(0 3.2433 -4.3411 -1.3685e-7 68.681 -18.989)" r="20">
   <stop id="stop2903" style="stop-color:#d3d3d3" offset="0"/>
   <stop id="stop2905" style="stop-color:#b1b1b1" offset=".26238"/>
   <stop id="stop2907" style="stop-color:#8e8e8e" offset=".66094"/>
   <stop id="stop2909" style="stop-color:#525252" offset="1"/>
  </radialGradient>
  <linearGradient id="linearGradient2460" y2="43" gradientUnits="userSpaceOnUse" x2="24" gradientTransform="matrix(1.4324 0 0 1.4324 -2.3784 -2.3784)" y1="5" x1="24">
   <stop id="stop2919" style="stop-color:#fff" offset="0"/>
   <stop id="stop2921" style="stop-color:#fff;stop-opacity:0" offset="1"/>
  </linearGradient>
 </defs>
 <g id="layer1">
  <g id="g2036" transform="matrix(1.5 0 0 .55556 -4 35.889)">
   <g id="g3712" style="opacity:.4" transform="matrix(1.0526 0 0 1.2857 -1.2632 -13.429)">
    <rect id="rect2801" style="fill:url(#radialGradient2873-966-168)" height="7" width="5" y="40" x="38"/>
    <rect id="rect3696" style="fill:url(#radialGradient2875-742-326)" transform="scale(-1)" height="7" width="5" y="-47" x="-10"/>
    <rect id="rect3700" style="fill:url(#linearGradient2877-634-617)" height="7" width="28" y="40" x="10"/>
   </g>
  </g>
  <rect id="rect5505" style="stroke-linejoin:round;stroke:url(#linearGradient2465);stroke-linecap:round;fill:url(#radialGradient2463)" rx="3" ry="3" height="55" width="55" y="4.5" x="4.5"/>
  <rect id="rect6741" style="opacity:.4;stroke-linejoin:round;stroke:url(#linearGradient2460);stroke-linecap:round;fill:none" rx="2" ry="2" height="53" width="53" y="5.5" x="5.5"/>
  <path id="path3298" style="opacity:.4;fill:#fff" d="m33.252 39.848c-0.091-3.357 0.636-6.615 3.7-8.923 3.236-2.611 6.353-5.877 6.024-9.727-0.072-3.713-4.252-6.622-8.755-7.04-5.066-0.727-11.196 1.069-12.893 5.164-0.861 1.991-0.063 5.564 2.827 5.564 1.69 0 2.466-1.13 2.593-2.163 0.097-0.782-0.213-1.481-0.397-2.127-0.208-0.736 0.683-2.162 1.653-2.743 0.811-0.486 1.66-0.649 1.785-0.68 2.912-0.724 5.815 0.876 7.027 2.823 1.211 1.948-0.122 4.902-2.039 7.775-1.917 2.872-3.974 6.135-3.966 9.601 0 1.319-0.114 1.767-0.033 2.301 0.064 0.427 1.429 0.375 2.474 0.175zm-1.329 4.518c-2.785-0.156-4.713 3.111-3.04 5.193 1.494 2.298 5.683 1.731 6.401-0.872 0.747-2.024-1.05-4.355-3.361-4.321z"/>
  <path id="path9053" style="opacity:.4" d="m33.252 38.848c-0.091-3.357 0.636-6.615 3.7-8.923 3.236-2.611 6.353-5.877 6.024-9.727-0.072-3.713-4.252-6.622-8.755-7.04-5.066-0.727-11.196 1.069-12.893 5.164-0.861 1.991-0.063 5.564 2.827 5.564 1.69 0 2.466-1.13 2.593-2.163 0.097-0.782-0.213-1.481-0.397-2.127-0.208-0.736 0.683-2.162 1.653-2.743 0.811-0.486 1.66-0.649 1.785-0.68 2.912-0.724 5.815 0.876 7.027 2.823 1.211 1.948-0.122 4.902-2.039 7.775-1.917 2.872-3.974 6.135-3.966 9.601 0 1.319-0.114 1.767-0.033 2.301 0.064 0.427 1.429 0.375 2.474 0.175zm-1.329 4.518c-2.785-0.156-4.713 3.111-3.04 5.193 1.494 2.298 5.683 1.731 6.401-0.872 0.747-2.024-1.05-4.355-3.361-4.321z"/>
 </g>
</svg>
